icons/editor-skew-filled.svg

<svg width="24" height="24" viewBox="0 0 24 24" fill="none" xmlns="http://www.w3.org/2000/svg">
<g id="skew">
<path id="Icon" d="M17.8729 16.5478L20.2729 7.45302M15.3466 19.0741H6.75711M3.72553 16.2951L6.12553 7.70565M8.65185 4.92671H17.494M4.60974 7.45302H7.64132C8.19942 7.45302 8.65185 7.00059 8.65185 6.4425V3.41092C8.65185 2.85282 8.19942 2.40039 7.64132 2.40039H4.60975C4.05165 2.40039 3.59922 2.85282 3.59922 3.41092V6.4425C3.59922 7.00059 4.05165 7.45302 4.60974 7.45302ZM18.7571 7.45302H21.7887C22.3468 7.45302 22.7992 7.00059 22.7992 6.4425V3.41092C22.7992 2.85282 22.3468 2.40039 21.7887 2.40039H18.7571C18.199 2.40039 17.7466 2.85282 17.7466 3.41092V6.4425C17.7466 7.00059 18.199 7.45302 18.7571 7.45302ZM2.20974 21.6004H5.24132C5.79942 21.6004 6.25185 21.148 6.25185 20.5899V17.5583C6.25185 17.0002 5.79942 16.5478 5.24132 16.5478H2.20975C1.65165 16.5478 1.19922 17.0002 1.19922 17.5583V20.5899C1.19922 21.148 1.65165 21.6004 2.20974 21.6004ZM16.3571 21.6004H19.3887C19.9468 21.6004 20.3992 21.148 20.3992 20.5899V17.5583C20.3992 17.0002 19.9468 16.5478 19.3887 16.5478H16.3571C15.799 16.5478 15.3466 17.0002 15.3466 17.5583V20.5899C15.3466 21.148 15.799 21.6004 16.3571 21.6004Z" stroke="black" stroke-width="2" stroke-linecap="round"/>
</g>
</svg>

<svg xmlns="http://www.w3.org/2000/svg" width="24" height="24" fill="none" viewBox="0 0 24 24"><path stroke="currentColor" stroke-linecap="round" stroke-width="2" d="m17.873 16.548 2.4-9.095m-4.926 11.621h-8.59m-3.031-2.779 2.4-8.59m2.526-2.778h8.842M4.61 7.453H7.64a1.01 1.01 0 0 0 1.01-1.01V3.41a1.01 1.01 0 0 0-1.01-1.01H4.61A1.01 1.01 0 0 0 3.6 3.41v3.032c0 .558.452 1.01 1.01 1.01Zm14.147 0h3.032a1.01 1.01 0 0 0 1.01-1.01V3.41a1.01 1.01 0 0 0-1.01-1.01h-3.032a1.01 1.01 0 0 0-1.01 1.01v3.032c0 .558.452 1.01 1.01 1.01ZM2.21 21.6H5.24a1.01 1.01 0 0 0 1.01-1.01v-3.032a1.01 1.01 0 0 0-1.01-1.01H2.21a1.01 1.01 0 0 0-1.01 1.01v3.032c0 .558.452 1.01 1.01 1.01Zm14.147 0h3.032a1.01 1.01 0 0 0 1.01-1.01v-3.032a1.01 1.01 0 0 0-1.01-1.01h-3.032a1.01 1.01 0 0 0-1.01 1.01v3.032c0 .558.452 1.01 1.01 1.01Z"/></svg>
